packages/foundations/assets/icons/functional/images/human/stroller_12.svg

<svg width="12" height="12" viewBox="0 0 12 12" fill="none" xmlns="http://www.w3.org/2000/svg">
<g clip-path="url(#clip0_232_263)">
<path fill-rule="evenodd" clip-rule="evenodd" d="M4.2239 8.39886C4.88665 8.39886 5.4239 8.93612 5.4239 9.59886C5.4239 10.2616 4.88665 10.7989 4.2239 10.7989C3.56116 10.7989 3.0239 10.2616 3.0239 9.59886C3.0239 8.93612 3.56116 8.39886 4.2239 8.39886ZM7.8239 8.39886C8.48665 8.39886 9.0239 8.93612 9.0239 9.59886C9.0239 10.2616 8.48665 10.7989 7.8239 10.7989C7.16116 10.7989 6.6239 10.2616 6.6239 9.59886C6.6239 8.93612 7.16116 8.39886 7.8239 8.39886ZM7.19859 1.20486C8.93347 1.32038 10.2579 2.80127 10.1798 4.53823L10.1744 4.6227C10.1693 4.80025 10.1553 4.98012 10.1163 5.11151C10.0473 5.32638 9.5819 6.67386 9.51215 6.84336C9.28685 7.4146 8.73794 7.7924 8.1239 7.79886H3.79153C3.16661 7.79737 2.60874 7.4068 2.39353 6.82011L1.86443 5.02526C1.79292 4.84068 1.81705 4.63272 1.92891 4.46942C2.04078 4.30612 2.22598 4.2085 2.42393 4.20851L3.11689 4.20817L2.80164 3.73236C2.74588 3.64878 2.65199 3.59867 2.55152 3.59886H2.41689C2.08552 3.59886 1.81689 3.33023 1.81689 2.99886C1.81689 2.66749 2.08552 2.39885 2.41689 2.39885H2.55152C3.05472 2.3982 3.52458 2.65039 3.80214 3.07011L4.55689 4.20817H5.84889L6.55396 1.64211C6.63217 1.35773 6.90545 1.17236 7.19859 1.20486ZM8.74108 5.40739L3.3239 5.40785L3.62672 6.36568C3.66587 6.51017 3.77544 6.60846 3.89974 6.61061H8.20324C8.32981 6.60095 8.43918 6.49889 8.48035 6.352C8.50642 6.27172 8.62412 5.84343 8.74108 5.40739ZM7.56309 2.49973L7.09389 4.20817L8.96249 4.20733C8.84348 3.11451 8.13515 2.6757 7.56309 2.49973Z" fill="#1A1C1F"/>
</g>
<defs>
<clipPath id="clip0_232_263">
<rect width="12" height="12" fill="white"/>
</clipPath>
</defs>
</svg>

<svg xmlns="http://www.w3.org/2000/svg" width="12" height="12" fill="none"><g clip-path="url(#a)"><path fill="#1A1C1F" fill-rule="evenodd" d="M4.224 8.399a1.2 1.2 0 1 1 0 2.4 1.2 1.2 0 0 1 0-2.4m3.6 0a1.2 1.2 0 1 1 0 2.4 1.2 1.2 0 0 1 0-2.4m-.625-7.194a3.197 3.197 0 0 1 2.98 3.333l-.005.085c-.005.177-.019.357-.058.489a72 72 0 0 1-.604 1.731 1.51 1.51 0 0 1-1.388.956H3.792a1.49 1.49 0 0 1-1.398-.979l-.53-1.795a.6.6 0 0 1 .56-.816h.693l-.315-.477a.3.3 0 0 0-.25-.133h-.135a.6.6 0 0 1 0-1.2h.135c.503 0 .973.251 1.25.671l.755 1.138h1.292l.705-2.566a.6.6 0 0 1 .645-.437M8.74 5.407H3.324l.303.959c.039.144.148.242.273.245h4.303c.127-.01.236-.112.277-.259.026-.08.144-.509.261-.945M7.563 2.5l-.47 1.708h1.87c-.12-1.093-.828-1.532-1.4-1.708" clip-rule="evenodd"/></g><defs><clipPath id="a"><path fill="#fff" d="M0 0h12v12H0z"/></clipPath></defs></svg>
